Newaita-dark/apps/64/com.github.philip-scott.notes-up.svg

<svg height="64pt" viewBox="0 0 64 64" width="64pt" xmlns="http://www.w3.org/2000/svg" xmlns:xlink="http://www.w3.org/1999/xlink"><linearGradient id="a" gradientUnits="userSpaceOnUse" x1="31.75304" x2="31.75304" y1="56.067872" y2="58.71396000006"><stop offset="0" stop-opacity=".27451"/><stop offset="1" stop-opacity="0"/></linearGradient><linearGradient id="b"><stop offset="0" stop-opacity=".313726"/><stop offset=".222222" stop-opacity=".27451"/><stop offset="1" stop-opacity="0"/></linearGradient><radialGradient id="c" cx="450.908936" cy="189.579361" gradientTransform="matrix(.00000035 -.156265 -.281277 -.0000002 100.292171 127.190665)" gradientUnits="userSpaceOnUse" r="21.166656" xlink:href="#b"/><radialGradient id="d" cx="450.908936" cy="189.579361" gradientTransform="matrix(-.00000035 .156265 .281277 .0000002 -36.786098 -15.054961)" gradientUnits="userSpaceOnUse" r="21.166656" xlink:href="#b"/><radialGradient id="e" cx="450.908936" cy="189.579361" gradientTransform="matrix(-.00000035 -.156265 .281277 -.0000002 -36.786098 127.190665)" gradientUnits="userSpaceOnUse" r="21.166656" xlink:href="#b"/><radialGradient id="f" cx="450.908936" cy="189.579361" gradientTransform="matrix(.00000035 .156265 -.281277 .0000002 100.292167 -15.054959)" gradientUnits="userSpaceOnUse" r="21.166656" xlink:href="#b"/><linearGradient id="g" gradientTransform="matrix(.150699 0 0 .434824 -11.708026 67.282696)" gradientUnits="userSpaceOnUse" x1="306.916656" x2="305.954559" y1="-25.791676" y2="-141.414581"><stop offset="0" stop-color="#42a5f5"/><stop offset="1" stop-color="#64b5f6"/></linearGradient><linearGradient id="h"><stop offset="0" stop-color="#424242"/><stop offset="1" stop-color="#616161"/></linearGradient><linearGradient id="i" gradientTransform="matrix(4.556143 0 0 13.146184 -353.972656 2034.180176)" gradientUnits="userSpaceOnUse" x1="165.484848" x2="165.484848" xlink:href="#h" y1="-25.791672" y2="-141.414581"/><linearGradient id="j" gradientUnits="userSpaceOnUse" x1="201.08305" x2="201.08305" xlink:href="#h" y1="80.0412949526" y2="-168.66671710991"/><path d="m15.875 56.066406h31.753906v2.648438h-31.753906zm0 0" fill="url(#a)"/><path d="m47.628906 56.066406h5.292969v-2.644531h-5.292969zm0 0" fill="url(#c)"/><path d="m15.875 56.066406h-5.289062v2.648438h5.289062zm0 0" fill="url(#d)"/><path d="m15.875 56.066406h-5.289062v-2.644531h5.289062zm0 0" fill="url(#e)"/><path d="m47.628906 56.066406h5.292969v2.648438h-5.292969zm0 0" fill="url(#f)"/><path d="m13.230469 5.792969h37.046875c1.460937 0 2.644531 1.183593 2.644531 2.644531v44.984375c0 1.460937-1.183594 2.644531-2.644531 2.644531h-37.046875c-1.460938 0-2.644531-1.183594-2.644531-2.644531v-44.984375c0-1.460938 1.183593-2.644531 2.644531-2.644531zm0 0" fill="url(#g)"/><path d="m400.001193 175.140764c-44.287112 0-79.952999 35.665888-79.952999 79.952999v1360.027676c0 44.287112 35.665887 79.952999 79.952999 79.952999h119.988548v-1519.933674zm0 0" fill="url(#i)" stroke="#212121" stroke-linecap="round" stroke-width="11.338583" transform="scale(.0330761)"/><path d="m13.230469 56.066406c-1.464844 0-2.644531-1.179687-2.644531-2.644531v-.332031c0 1.46875 1.179687 2.648437 2.644531 2.648437h37.046875c1.464844 0 2.644531-1.179687 2.644531-2.648437v.332031c0 1.464844-1.179687 2.644531-2.644531 2.644531zm0 0" fill-opacity=".196078"/><path d="m13.230469 5.792969c-1.464844 0-2.644531 1.179687-2.644531 2.644531v.332031c0-1.464843 1.179687-2.648437 2.644531-2.648437h37.046875c1.464844 0 2.644531 1.183594 2.644531 2.648437v-.332031c0-1.464844-1.179687-2.644531-2.644531-2.644531zm0 0" fill="#e6e6e6" fill-opacity=".937239"/><path d="m13.230469 5.605469c-1.566407 0-2.832031 1.265625-2.832031 2.832031v44.984375c0 1.566406 1.265624 2.832031 2.832031 2.832031h37.046875c1.566406 0 2.832031-1.265625 2.832031-2.832031v-44.984375c0-1.566406-1.265625-2.832031-2.832031-2.832031zm0 .375h37.046875c1.363281 0 2.457031 1.09375 2.457031 2.457031v44.984375c0 1.367187-1.09375 2.457031-2.457031 2.457031h-37.046875c-1.367188 0-2.457031-1.089844-2.457031-2.457031v-44.984375c0-1.363281 1.089843-2.457031 2.457031-2.457031zm0 0" fill="#212121"/><path d="m179.920318-168.660675v254.006993c15.873485-42.339706 26.466223-42.339706 42.339707 0v-254.006993zm0 0" fill="url(#j)" stroke="#212121" stroke-linecap="round" stroke-linejoin="round" stroke-width="3" transform="matrix(.125012 0 0 .125012 0 26.877566)"/></svg>

<?xml version="1.0" encoding="UTF-8"?>
<svg xmlns="http://www.w3.org/2000/svg" xmlns:xlink="http://www.w3.org/1999/xlink" width="64pt" height="64pt" viewBox="0 0 64 64" version="1.1">
<defs>
<linearGradient id="linear0" gradientUnits="userSpaceOnUse" x1="254" y1="233.5" x2="254" y2="254.666672" gradientTransform="matrix(0.125012,0,0,0.125012,-0.00000763012,26.87757)">
<stop offset="0" style="stop-color:rgb(0%,0%,0%);stop-opacity:0.27451;"/>
<stop offset="1" style="stop-color:rgb(0%,0%,0%);stop-opacity:0;"/>
</linearGradient>
<radialGradient id="radial0" gradientUnits="userSpaceOnUse" cx="450.908936" cy="189.579361" fx="450.908936" fy="189.579361" r="21.166656" gradientTransform="matrix(0.000000348341,-0.156265,-0.281277,-0.000000203077,100.292171,127.190665)">
<stop offset="0" style="stop-color:rgb(0%,0%,0%);stop-opacity:0.313726;"/>
<stop offset="0.222222" style="stop-color:rgb(0%,0%,0%);stop-opacity:0.27451;"/>
<stop offset="1" style="stop-color:rgb(0%,0%,0%);stop-opacity:0;"/>
</radialGradient>
<radialGradient id="radial1" gradientUnits="userSpaceOnUse" cx="450.908936" cy="189.579361" fx="450.908936" fy="189.579361" r="21.166656" gradientTransform="matrix(-0.000000348341,0.156265,0.281277,0.000000203077,-36.786098,-15.054961)">
<stop offset="0" style="stop-color:rgb(0%,0%,0%);stop-opacity:0.313726;"/>
<stop offset="0.222222" style="stop-color:rgb(0%,0%,0%);stop-opacity:0.27451;"/>
<stop offset="1" style="stop-color:rgb(0%,0%,0%);stop-opacity:0;"/>
</radialGradient>
<radialGradient id="radial2" gradientUnits="userSpaceOnUse" cx="450.908936" cy="189.579361" fx="450.908936" fy="189.579361" r="21.166656" gradientTransform="matrix(-0.000000348341,-0.156265,0.281277,-0.000000203077,-36.786098,127.190665)">
<stop offset="0" style="stop-color:rgb(0%,0%,0%);stop-opacity:0.313726;"/>
<stop offset="0.222222" style="stop-color:rgb(0%,0%,0%);stop-opacity:0.27451;"/>
<stop offset="1" style="stop-color:rgb(0%,0%,0%);stop-opacity:0;"/>
</radialGradient>
<radialGradient id="radial3" gradientUnits="userSpaceOnUse" cx="450.908936" cy="189.579361" fx="450.908936" fy="189.579361" r="21.166656" gradientTransform="matrix(0.000000348341,0.156265,-0.281277,0.000000203077,100.292167,-15.054959)">
<stop offset="0" style="stop-color:rgb(0%,0%,0%);stop-opacity:0.313726;"/>
<stop offset="0.222222" style="stop-color:rgb(0%,0%,0%);stop-opacity:0.27451;"/>
<stop offset="1" style="stop-color:rgb(0%,0%,0%);stop-opacity:0;"/>
</radialGradient>
<linearGradient id="linear1" gradientUnits="userSpaceOnUse" x1="306.916656" y1="-25.791676" x2="305.954559" y2="-141.414581" gradientTransform="matrix(0.150699,0,0,0.434824,-11.708026,67.282696)">
<stop offset="0" style="stop-color:rgb(25.882354%,64.705884%,96.078432%);stop-opacity:1;"/>
<stop offset="1" style="stop-color:rgb(39.215687%,70.980394%,96.470588%);stop-opacity:1;"/>
</linearGradient>
<linearGradient id="linear2" gradientUnits="userSpaceOnUse" x1="165.484848" y1="-25.791672" x2="165.484848" y2="-141.414581" gradientTransform="matrix(4.556143,0,0,13.146184,-353.972656,2034.180176)">
<stop offset="0" style="stop-color:rgb(25.882354%,25.882354%,25.882354%);stop-opacity:1;"/>
<stop offset="1" style="stop-color:rgb(38.039216%,38.039216%,38.039216%);stop-opacity:1;"/>
</linearGradient>
<linearGradient id="linear3" gradientUnits="userSpaceOnUse" x1="840" y1="1115.117188" x2="840" y2="175.117218" gradientTransform="matrix(0.264583,0,0,0.264583,-21.16667,-214.999756)">
<stop offset="0" style="stop-color:rgb(25.882354%,25.882354%,25.882354%);stop-opacity:1;"/>
<stop offset="1" style="stop-color:rgb(38.039216%,38.039216%,38.039216%);stop-opacity:1;"/>
</linearGradient>
</defs>
<g id="surface1">
<path style=" stroke:none;fill-rule:nonzero;fill:url(#linear0);" d="M 15.875 56.066406 L 47.628906 56.066406 L 47.628906 58.714844 L 15.875 58.714844 Z M 15.875 56.066406 "/>
<path style=" stroke:none;fill-rule:nonzero;fill:url(#radial0);" d="M 47.628906 56.066406 L 52.921875 56.066406 L 52.921875 53.421875 L 47.628906 53.421875 Z M 47.628906 56.066406 "/>
<path style=" stroke:none;fill-rule:nonzero;fill:url(#radial1);" d="M 15.875 56.066406 L 10.585938 56.066406 L 10.585938 58.714844 L 15.875 58.714844 Z M 15.875 56.066406 "/>
<path style=" stroke:none;fill-rule:nonzero;fill:url(#radial2);" d="M 15.875 56.066406 L 10.585938 56.066406 L 10.585938 53.421875 L 15.875 53.421875 Z M 15.875 56.066406 "/>
<path style=" stroke:none;fill-rule:nonzero;fill:url(#radial3);" d="M 47.628906 56.066406 L 52.921875 56.066406 L 52.921875 58.714844 L 47.628906 58.714844 Z M 47.628906 56.066406 "/>
<path style=" stroke:none;fill-rule:nonzero;fill:url(#linear1);" d="M 13.230469 5.792969 L 50.277344 5.792969 C 51.738281 5.792969 52.921875 6.976562 52.921875 8.4375 L 52.921875 53.421875 C 52.921875 54.882812 51.738281 56.066406 50.277344 56.066406 L 13.230469 56.066406 C 11.769531 56.066406 10.585938 54.882812 10.585938 53.421875 L 10.585938 8.4375 C 10.585938 6.976562 11.769531 5.792969 13.230469 5.792969 Z M 13.230469 5.792969 "/>
<path style="fill-rule:nonzero;fill:url(#linear2);stroke-width:11.338583;stroke-linecap:round;stroke-linejoin:miter;stroke:rgb(12.941177%,12.941177%,12.941177%);stroke-opacity:1;stroke-miterlimit:4;" d="M 400.001193 175.140764 C 355.714081 175.140764 320.048194 210.806652 320.048194 255.093763 L 320.048194 1615.121439 C 320.048194 1659.408551 355.714081 1695.074438 400.001193 1695.074438 L 519.989741 1695.074438 L 519.989741 175.140764 Z M 400.001193 175.140764 " transform="matrix(0.0330761,0,0,0.0330761,0,0)"/>
<path style=" stroke:none;fill-rule:nonzero;fill:rgb(0%,0%,0%);fill-opacity:0.196078;" d="M 13.230469 56.066406 C 11.765625 56.066406 10.585938 54.886719 10.585938 53.421875 L 10.585938 53.089844 C 10.585938 54.558594 11.765625 55.738281 13.230469 55.738281 L 50.277344 55.738281 C 51.742188 55.738281 52.921875 54.558594 52.921875 53.089844 L 52.921875 53.421875 C 52.921875 54.886719 51.742188 56.066406 50.277344 56.066406 Z M 13.230469 56.066406 "/>
<path style=" stroke:none;fill-rule:nonzero;fill:rgb(90.196079%,90.196079%,90.196079%);fill-opacity:0.937239;" d="M 13.230469 5.792969 C 11.765625 5.792969 10.585938 6.972656 10.585938 8.4375 L 10.585938 8.769531 C 10.585938 7.304688 11.765625 6.121094 13.230469 6.121094 L 50.277344 6.121094 C 51.742188 6.121094 52.921875 7.304688 52.921875 8.769531 L 52.921875 8.4375 C 52.921875 6.972656 51.742188 5.792969 50.277344 5.792969 Z M 13.230469 5.792969 "/>
<path style=" stroke:none;fill-rule:nonzero;fill:rgb(12.941177%,12.941177%,12.941177%);fill-opacity:1;" d="M 13.230469 5.605469 C 11.664062 5.605469 10.398438 6.871094 10.398438 8.4375 L 10.398438 53.421875 C 10.398438 54.988281 11.664062 56.253906 13.230469 56.253906 L 50.277344 56.253906 C 51.84375 56.253906 53.109375 54.988281 53.109375 53.421875 L 53.109375 8.4375 C 53.109375 6.871094 51.84375 5.605469 50.277344 5.605469 Z M 13.230469 5.980469 L 50.277344 5.980469 C 51.640625 5.980469 52.734375 7.074219 52.734375 8.4375 L 52.734375 53.421875 C 52.734375 54.789062 51.640625 55.878906 50.277344 55.878906 L 13.230469 55.878906 C 11.863281 55.878906 10.773438 54.789062 10.773438 53.421875 L 10.773438 8.4375 C 10.773438 7.074219 11.863281 5.980469 13.230469 5.980469 Z M 13.230469 5.980469 "/>
<path style="fill-rule:nonzero;fill:url(#linear3);stroke-width:3;stroke-linecap:round;stroke-linejoin:round;stroke:rgb(12.941177%,12.941177%,12.941177%);stroke-opacity:1;stroke-miterlimit:4;" d="M 179.920318 -168.660675 L 179.920318 85.346318 C 195.793803 43.006612 206.386541 43.006612 222.260025 85.346318 L 222.260025 -168.660675 Z M 179.920318 -168.660675 " transform="matrix(0.125012,0,0,0.125012,0,26.877566)"/>
</g>
</svg>
